packages/sources/icons/src/vitamix/bank-card-line.svg

<svg width="16" height="16" viewBox="0 0 16 16" xmlns="http://www.w3.org/2000/svg"><path d="M1.99658 2H13.9936C14.1703 2 14.3399 2.07022 14.4649 2.19521C14.5899 2.32021 14.6601 2.48973 14.6601 2.6665V13.3305C14.6601 13.5073 14.5899 13.6768 14.4649 13.8018C14.3399 13.9268 14.1703 13.997 13.9936 13.997H1.99658C1.81981 13.997 1.65028 13.9268 1.52529 13.8018C1.4003 13.6768 1.33008 13.5073 1.33008 13.3305V2.6665C1.33008 2.48973 1.4003 2.32021 1.52529 2.19521C1.65028 2.07022 1.81981 2 1.99658 2ZM13.3271 7.332H2.66308V12.664H13.3271V7.332ZM13.3271 5.999V3.333H2.66308V5.999H13.3271ZM9.32808 9.998H11.9941V11.331H9.32808V9.998Z"/></svg>

<svg width="16" height="16" xmlns="http://www.w3.org/2000/svg"><path d="M1.997 2h11.997a.667.667 0 0 1 .666.667V13.33a.666.666 0 0 1-.666.666H1.997a.666.666 0 0 1-.667-.666V2.666A.667.667 0 0 1 1.997 2Zm11.33 5.332H2.663v5.332h10.664V7.332Zm0-1.333V3.333H2.663v2.666h10.664ZM9.328 9.998h2.666v1.333H9.328V9.998Z"/></svg>
